X:1
T:Title
%%score ( 1 2 ) 3
L:1/8
Q:1/4=90
M:4/4
K:C
V:1 treble nm="Strings 1, Soprano"
V:2 treble 
V:3 bass nm="Strings 1, Bass"
V:1
 z4 z2 [EG]2 | [Ec]2 [_EB]>[=EG] [FA]2 [EG]>[_E^F] | [EG]4 [CE]2 [CE]2 | %3
w: 1.~Oh,~|come~ to~ the~ foun tain~ of~|cleans ing,~ Dear~|
 [EG]2 [FA]>[EG] [DF]2 [B,G]>[B,D] | [CE]6 [EG]2 | [EG]2 [Ec]>[Fd] [Ge]2 [Gd]>[Gc] | %6
w: sin ner,~ why~ long er~ de|lay?~ The~|Sav ior~ is~ ear nest ly~|
 [Ac]4 [FA]2 [FA]2 | [EG]2 [Ec]>[CE] [CE]2 [B,E]>[B,D] | z4 z2 .G2 | B2 d4 [FB]>[FG] | %10
w: plead ing,~ The~|foun tain~ is~ o pen~ to|||
 c4 G2 [EG]>[EG] | [FA]2 [F^G]>[FA] [Fc]2 [=GB]>[FA] | [EG]6 [EG]2 | [DB]2 [DB]>[Ec] [Fd]3 [FG] | %14
w: ||||
 [Ec]2 [Ec]>[Fd] [Ge]3 [Ec] | [Ec]2 [EG]>[CE] [B,G]2 [B,D]>[B,E] | C6 z2 |] %17
w: |||
V:2
 x8 | x8 | x8 | x8 | x8 | x8 | x8 | x8 | C6 E-[Ec] | F6 z2 | E6 z2 | x8 | x8 | x8 | x8 | x8 | x8 |] %17
V:3
 z4 z2 [C,C]2 | [C,C]2 [C,C]>[C,C] [C,C]2 [C,C]>[C,C] | [C,C]4 [C,G,]2 [C,G,]2 | %3
 [C,C]2 [C,C]>[C,C] [G,B,]2 [G,,G,]>[G,,G,] | [C,G,]6 [C,C]2 | %5
 [C,C]2 [C,G,]>[C,G,] [C,C]2 [D,B,]>[E,C] | [F,C]4 [F,C]2 [F,C]2 | %7
 [C,C]2 [C,G,]>[E,G,] G,2 [G,,G,]>[G,,F,] | [C,E,]6 [C,C]2 | [G,D]2 [G,B,]>[G,B,] [G,B,]2 z2 | %10
 [C,G,]2 [C,G,]>[C,G,] [C,C]2 [C,C]>[C,C] | [F,C]2 [F,C]>[F,C] [F,A,]2 [F,C]>[F,C] | %12
 [C,C]6 [C,C]2 | G,2 G,>G, [G,B,]3 [G,D] | [C,C]2 [C,G,]>[C,G,] [C,C]3 [C,G,] | %15
 [C,G,]2 [C,C]>[C,G,] [G,,G,]2 [G,,F,]>[G,,G,] | [C,E,]6 z2 |] %17

